public/flags/CNA.svg

<svg fill="none" height="53" viewBox="0 0 61 53" width="61" xmlns="http://www.w3.org/2000/svg" xmlns:xlink="http://www.w3.org/1999/xlink"><mask id="a" height="43" maskUnits="userSpaceOnUse" width="59" x="1" y="3"><rect fill="#fff" height="42.5" rx="4.24286" width="59" x="1" y="3"/></mask><rect fill="#fff" height="42.5" rx="4.24286" width="59" x="1" y="3"/><g mask="url(#a)"><path d="m1 3h59v42.5h-59z" fill="#19bfbf"/><path clip-rule="evenodd" d="m29.0951 34.1667-1.2099-2.4403c-.1193-.2408-.3648-.3931-.6335-.3931h-.6714c-.1886 0-.3694-.0753-.5022-.2092l-5.2065-5.2507c-.1314-.1324-.205-.3114-.205-.4979v-2.251c0-.1865-.0737-.3655-.2051-.4979l-2.4671-2.4881c-.0899-.0907-.1536-.2039-.1843-.3278l-1.2645-5.1008c-.0581-.2346-.232-.4232-.461-.5002l-3.7987-1.2769c-.0319-.0108-.063-.0238-.0931-.0389l-2.37557-1.1979c-.2384-.1202-.38876-.3644-.38876-.6314v-1.6908c0-.39055.3166-.70714.70713-.70714h1.8077c.1886 0 .3694.07532.5022.20923l.9898.9982c.1328.13391.3135.20921.5021.20921h2.2202c.1886 0 .3694-.0753.5021-.20921l.9899-.9982c.1327-.13391.3135-.20923.5021-.20923h5.1562c.1106 0 .2196.02593.3184.07573l2.5091 1.26521c.0988.0498.2078.0757.3184.0757h2.4731c.1106 0 .2197-.0259.3184-.0757l2.5092-1.26521c.0987-.0498.2078-.07573.3184-.07573h4.7437c.3905 0 .7071.3166.7071.70714v1.419c0 .3906-.3166.7072-.7071.7072h-1.3953c-.3905 0-.7071.3166-.7071.7071v3.1075c0 .267.1503.5112.3887.6314l1.3953.7035c.4703.2372 1.0255-.1046 1.0255-.6314v-2.3943c0-.3905.3166-.7071.7071-.7071h2.8c.3906 0 .7072.3177.7072.7083 0 .3905.3166.7083.7071.7083h2.8c.3906 0 .7072.3166.7072.7072v2.0123c0 .0754-.0121.1503-.0358.2219l-1.3168 3.9841c-.0343.1038-.0923.1983-.1693.2759l-4.0166 4.0507c-.0534.0538-.0977.1159-.1314.1838l-1.2803 2.5824c-.0484.0976-.0736.2051-.0736.3141v1.9605c0 .3905-.3166.7071-.7072.7071h-.2589c-.2687 0-.5142-.1523-.6336-.393l-1.015-2.0473c-.1194-.2407-.3648-.393-.6335-.393h-3.337c-.2687 0-.5141.1523-.6335.393l-1.0542 2.1262c-.0981.1979-.0981.4303 0 .6282l1.0542 2.1262c.1194.2408.3648.3931.6335.3931h2.0762c.1886 0 .3694.0753.5022.2092l2.397 2.4173c.1313.1325.205.3114.205.498v1.835c0 .3905-.3166.7071-.7071.7071h-1.6637c-.2687 0-.5142-.1523-.6336-.393l-1.015-2.0473c-.1194-.2407-.3649-.393-.6336-.393h-1.9321c-.2687 0-.5142-.1523-.6336-.393z" fill="#fff" fill-rule="evenodd"/></g></svg>

<svg width="61" height="53" viewBox="0 0 61 53" fill="none" xmlns="http://www.w3.org/2000/svg">
<rect x="1" y="3" width="59" height="42.5" rx="4.24286" fill="white"/>
<mask id="mask0" mask-type="alpha" maskUnits="userSpaceOnUse" x="1" y="3" width="59" height="43">
<rect x="1" y="3" width="59" height="42.5" rx="4.24286" fill="white"/>
</mask>
<g mask="url(#mask0)">
<rect x="1" y="3" width="59" height="42.5" fill="#19BFBF"/>
<path fill-rule="evenodd" clip-rule="evenodd" d="M29.0951 34.1667L27.8852 31.7264C27.7659 31.4856 27.5204 31.3333 27.2517 31.3333H26.5803C26.3917 31.3333 26.2109 31.258 26.0781 31.1241L20.8716 25.8734C20.7402 25.741 20.6666 25.562 20.6666 25.3755V23.1245C20.6666 22.938 20.5929 22.759 20.4615 22.6266L17.9944 20.1385C17.9045 20.0478 17.8408 19.9346 17.8101 19.8107L16.5456 14.7099C16.4875 14.4753 16.3136 14.2867 16.0846 14.2097L12.2859 12.9328C12.254 12.922 12.2229 12.909 12.1928 12.8939L9.81723 11.696C9.57883 11.5758 9.42847 11.3316 9.42847 11.0646V9.3738C9.42847 8.98325 9.74507 8.66666 10.1356 8.66666H11.9433C12.1319 8.66666 12.3127 8.74198 12.4455 8.87589L13.4353 9.87409C13.5681 10.008 13.7488 10.0833 13.9374 10.0833H16.1576C16.3462 10.0833 16.527 10.008 16.6597 9.87409L17.6496 8.87589C17.7823 8.74198 17.9631 8.66666 18.1517 8.66666H23.3079C23.4185 8.66666 23.5275 8.69259 23.6263 8.74239L26.1354 10.0076C26.2342 10.0574 26.3432 10.0833 26.4538 10.0833H28.9269C29.0375 10.0833 29.1466 10.0574 29.2453 10.0076L31.7545 8.74239C31.8532 8.69259 31.9623 8.66666 32.0729 8.66666H36.8166C37.2071 8.66666 37.5237 8.98326 37.5237 9.3738V10.7928C37.5237 11.1834 37.2071 11.5 36.8166 11.5H35.4213C35.0308 11.5 34.7142 11.8166 34.7142 12.2071V15.3146C34.7142 15.5816 34.8645 15.8258 35.1029 15.946L36.4982 16.6495C36.9685 16.8867 37.5237 16.5449 37.5237 16.0181V13.6238C37.5237 13.2333 37.8403 12.9167 38.2308 12.9167H41.0308C41.4214 12.9167 41.738 13.2344 41.738 13.625V13.625C41.738 14.0155 42.0546 14.3333 42.4451 14.3333H45.2451C45.6357 14.3333 45.9523 14.6499 45.9523 15.0405V17.0528C45.9523 17.1282 45.9402 17.2031 45.9165 17.2747L44.5997 21.2588C44.5654 21.3626 44.5074 21.4571 44.4304 21.5347L40.4138 25.5854C40.3604 25.6392 40.3161 25.7013 40.2824 25.7692L39.0021 28.3516C38.9537 28.4492 38.9285 28.5567 38.9285 28.6657V30.6262C38.9285 31.0167 38.6119 31.3333 38.2213 31.3333H37.9624C37.6937 31.3333 37.4482 31.181 37.3288 30.9403L36.3138 28.893C36.1944 28.6523 35.949 28.5 35.6803 28.5H32.3433C32.0746 28.5 31.8292 28.6523 31.7098 28.893L30.6556 31.0192C30.5575 31.2171 30.5575 31.4495 30.6556 31.6474L31.7098 33.7736C31.8292 34.0144 32.0746 34.1667 32.3433 34.1667H34.4195C34.6081 34.1667 34.7889 34.242 34.9217 34.3759L37.3187 36.7932C37.45 36.9257 37.5237 37.1046 37.5237 37.2912V39.1262C37.5237 39.5167 37.2071 39.8333 36.8166 39.8333H35.1529C34.8842 39.8333 34.6387 39.681 34.5193 39.4403L33.5043 37.393C33.3849 37.1523 33.1394 37 32.8707 37H30.9386C30.6699 37 30.4244 36.8477 30.305 36.607L29.0951 34.1667Z" fill="white"/>
</g>
</svg>
